packages/dnb-ui-lib/assets/icons/fullscreen.svg

<svg width="16" height="16" viewBox="0 0 16 16" fill="none" xmlns="http://www.w3.org/2000/svg">
<path d="M1 15L5.97777 10.0223M1 15H4.11111M1 15V11.8889M10.0222 5.97777L15 1M15 1V4.11111M15 1H11.8889M1 1L5.97777 5.97777M1 1V4.11111M1 1H4.11111M10.0222 10.0223L15 15M15 15H11.8889M15 15V11.8889" stroke="black" stroke-width="1.5" stroke-miterlimit="10" stroke-linecap="round" stroke-linejoin="round"/>
</svg>

<svg width="16" height="16" viewBox="0 0 16 16" fill="none" xmlns="http://www.w3.org/2000/svg"><path d="M1 15l4.978-4.978M1 15h3.111M1 15v-3.111m9.022-5.911L15 1m0 0v3.111M15 1h-3.111M1 1l4.978 4.978M1 1v3.111M1 1h3.111m5.911 9.022L15 15m0 0h-3.111M15 15v-3.111" stroke="#000" stroke-width="1.5" stroke-miterlimit="10" stroke-linecap="round" stroke-linejoin="round"/></svg>
